X: 33400
T: Quiet Glen, The
R: jig
M: 6/8
K: Aminor
|:cec dcd|ecA GEG|cBc dcd|eag a2a|
bag aed|ecA Ged|ced edc|1 BAG A2B:|2 BAG A3||
|:cBA GBG|~A3 ~B3|cBA BGE|~F3 G2B|
cBA GBG|AGE ~B2a|ged BAG|1 EAA A2B:|2 EAA A3||
|:FGA FGA|GAB dBG|AGA cBc|dcd e2g|
ece dBG|{g}a3 bge|dBA BAG|1 EAA A2E:|2 EAA A3||

